build/svg/cmd/lc_nextannotation.svg

<?xml version="1.0" encoding="UTF-8" standalone="no"?>
<svg
   xmlns:dc="http://purl.org/dc/elements/1.1/"
   xmlns:cc="http://creativecommons.org/ns#"
   xmlns:rdf="http://www.w3.org/1999/02/22-rdf-syntax-ns#"
   xmlns:svg="http://www.w3.org/2000/svg"
   xmlns="http://www.w3.org/2000/svg"
   xmlns:sodipodi="http://sodipodi.sourceforge.net/DTD/sodipodi-0.dtd"
   xmlns:inkscape="http://www.inkscape.org/namespaces/inkscape"
   viewBox="0 0 24 24"
   version="1.1"
   id="svg4"
   sodipodi:docname="lc_nextannotation.svg"
   inkscape:version="0.92.5 (2060ec1f9f, 2020-04-08)"
   inkscape:export-filename="/home/jupiter007/Libreoffice yaru theme fullcolor/build/cmd/lc_nextannotation.png"
   inkscape:export-xdpi="95"
   inkscape:export-ydpi="95">
  <metadata
     id="metadata10">
    <rdf:RDF>
      <cc:Work
         rdf:about="">
        <dc:format>image/svg+xml</dc:format>
        <dc:type
           rdf:resource="http://purl.org/dc/dcmitype/StillImage" />
      </cc:Work>
    </rdf:RDF>
  </metadata>
  <defs
     id="defs8" />
  <sodipodi:namedview
     pagecolor="#ffffff"
     bordercolor="#666666"
     borderopacity="1"
     objecttolerance="10"
     gridtolerance="10"
     guidetolerance="10"
     inkscape:pageopacity="0"
     inkscape:pageshadow="2"
     inkscape:window-width="1920"
     inkscape:window-height="1011"
     id="namedview6"
     showgrid="true"
     inkscape:zoom="32"
     inkscape:cx="8.5688784"
     inkscape:cy="9.576868"
     inkscape:window-x="1920"
     inkscape:window-y="32"
     inkscape:window-maximized="1"
     inkscape:current-layer="svg4">
    <inkscape:grid
       type="xygrid"
       id="grid835" />
  </sodipodi:namedview>
  <path
     sodipodi:nodetypes="ssscsscccssss"
     inkscape:connector-curvature="0"
     id="path832"
     d="M 5.9955049,5.0010369 H 17.995505 c 1,0 2.141421,0.010051 2,1 v 8.0000001 1 c 0,1 -1,1 -2,1 H 9.9955049 v 3 l -2.5,-3 h -1.5 c -1,0 -2,0 -2,-1 V 6.0010369 c 0,-1 1,-1 2,-1 z"
     style="opacity:0.6;fill:#ffffff;fill-opacity:1;fill-rule:nonzero;stroke:#000000;stroke-width:2;stroke-linecap:butt;stroke-linejoin:round;stroke-miterlimit:4;stroke-dasharray:none;stroke-dashoffset:0;stroke-opacity:1" />
  <path
     style="opacity:1;fill:#fa9381;fill-opacity:1;fill-rule:nonzero;stroke:none;stroke-width:0.00119524;stroke-linecap:butt;stroke-linejoin:round;stroke-miterlimit:4;stroke-dasharray:none;stroke-dashoffset:0;stroke-opacity:1"
     d="M 5.9955049,5.0010369 H 17.995505 c 1,0 2.141421,0.010051 2,1 v 8.0000001 1 c 0,1 -1,1 -2,1 H 9.9955049 v 3 l -2.5,-3 h -1.5 c -1,0 -2,0 -2,-1 V 6.0010369 c 0,-1 1,-1 2,-1 z"
     id="path820"
     inkscape:connector-curvature="0"
     sodipodi:nodetypes="ssscsscccssss" />
  <path
     style="opacity:1;fill:#ffffff;fill-opacity:1;fill-rule:nonzero;stroke:none;stroke-width:0.00119524;stroke-linecap:butt;stroke-linejoin:round;stroke-miterlimit:4;stroke-dasharray:none;stroke-dashoffset:0;stroke-opacity:1"
     d="M 6.4955049,10.001037 H 17.495505 c 0.277,0 0.5,0.223 0.5,0.5 0,0.277 -0.223,0.5 -0.5,0.5 H 6.4955049 c -0.277,0 -0.5,-0.223 -0.5,-0.5 0,-0.277 0.223,-0.5 0.5,-0.5 z"
     id="path826"
     inkscape:connector-curvature="0"
     sodipodi:nodetypes="sssssss" />
  <path
     style="opacity:1;fill:#ffffff;fill-opacity:1;fill-rule:nonzero;stroke:none;stroke-width:0.00119524;stroke-linecap:butt;stroke-linejoin:round;stroke-miterlimit:4;stroke-dasharray:none;stroke-dashoffset:0;stroke-opacity:1"
     d="M 6.4955049,12.001037 H 17.495505 c 0.277,0 0.5,0.223 0.5,0.5 0,0.277 -0.223,0.5 -0.5,0.5 H 6.4955049 c -0.277,0 -0.5,-0.223 -0.5,-0.5 0,-0.277 0.223,-0.5 0.5,-0.5 z"
     id="path824"
     inkscape:connector-curvature="0"
     sodipodi:nodetypes="sssssss" />
  <path
     style="opacity:1;fill:#ffffff;fill-opacity:1;fill-rule:nonzero;stroke:none;stroke-width:0.00119524;stroke-linecap:butt;stroke-linejoin:round;stroke-miterlimit:4;stroke-dasharray:none;stroke-dashoffset:0;stroke-opacity:1"
     d="M 6.4955049,8.0010371 H 17.495505 c 0.277,0 0.5,0.223 0.5,0.5 0,0.277 -0.223,0.5 -0.5,0.5 H 6.4955049 c -0.277,0 -0.5,-0.223 -0.5,-0.5 0,-0.277 0.223,-0.5 0.5,-0.5 z"
     id="path822"
     inkscape:connector-curvature="0"
     sodipodi:nodetypes="sssssss" />
  <path
     sodipodi:nodetypes="cccccccc"
     style="opacity:0.6;fill:#000000;fill-opacity:1;stroke:#000000;stroke-width:2;stroke-linecap:butt;stroke-linejoin:round;stroke-miterlimit:4;stroke-dasharray:none;stroke-opacity:1"
     d="M 22,16.5 18,20 v -2 h -4 v -3 h 4 v -2 z"
     id="path839"
     inkscape:connector-curvature="0" />
  <path
     sodipodi:nodetypes="cccccccc"
     id="path841"
     d="M 22,16.5 18,20 v -2 h -4 v -3 h 4 v -2 z"
     style="fill:#ffffff;fill-opacity:1;stroke:none;stroke-width:1px;stroke-linecap:butt;stroke-linejoin:miter;stroke-opacity:1"
     inkscape:connector-curvature="0" />
</svg>

<svg xmlns="http://www.w3.org/2000/svg" viewBox="0 0 24 24"><path d="M5.996 5.001h12c1 0 2.14.01 2 1v9c0 1-1 1-2 1h-8v3l-2.5-3h-1.5c-1 0-2 0-2-1v-9c0-1 1-1 2-1z" opacity=".6" fill="#fff" stroke="#000" stroke-width="2" stroke-linejoin="round"/><path d="M5.996 5.001h12c1 0 2.14.01 2 1v9c0 1-1 1-2 1h-8v3l-2.5-3h-1.5c-1 0-2 0-2-1v-9c0-1 1-1 2-1z" fill="#fa9381"/><path d="M6.496 10.001h11a.499.499 0 110 1h-11a.499.499 0 110-1zM6.496 12.001h11a.499.499 0 110 1h-11a.499.499 0 110-1zM6.496 8.001h11a.499.499 0 110 1h-11a.499.499 0 110-1z" fill="#fff"/><path d="M22 16.5L18 20v-2h-4v-3h4v-2z" opacity=".6" stroke="#000" stroke-width="2" stroke-linejoin="round"/><path d="M22 16.5L18 20v-2h-4v-3h4v-2z" fill="#fff"/></svg>
